svgs/yandex_maps.svg

<svg width="24" height="24" viewBox="0 0 24 24" fill="none" xmlns="http://www.w3.org/2000/svg">
<path fill-rule="evenodd" clip-rule="evenodd" d="M16.2514 16.4151C14.3449 17.584 12.4706 19.3097 12.4706 21.5062C12.4706 21.7597 12.2599 22 12 22C11.7401 22 11.5294 21.7597 11.5294 21.5062C11.5294 19.3097 9.65513 17.584 7.74859 16.4151C5.4967 15.0344 4 12.5894 4 9.80348C4 5.49374 7.58172 2 12 2C16.4183 2 20 5.49374 20 9.80348C20 12.5894 18.5033 15.0344 16.2514 16.4151ZM12 12.3689C13.5594 12.3689 14.8235 11.1359 14.8235 9.61478C14.8235 8.09369 13.5594 6.86061 12 6.86061C10.4406 6.86061 9.17647 8.09369 9.17647 9.61478C9.17647 11.1359 10.4406 12.3689 12 12.3689Z" fill="white"/>
</svg>

<svg xmlns="http://www.w3.org/2000/svg" viewBox="0 0 24 24"><path d="M16.251 16.415c-1.906 1.169-3.78 2.895-3.78 5.091 0 .254-.211.494-.471.494s-.47-.24-.47-.494c0-2.196-1.875-3.922-3.781-5.09C5.497 15.033 4 12.588 4 9.802 4 5.493 7.582 2 12 2s8 3.494 8 7.803c0 2.786-1.497 5.231-3.749 6.612M12 12.37c1.56 0 2.823-1.233 2.823-2.754S13.56 6.86 12 6.86 9.176 8.093 9.176 9.614c0 1.52 1.265 2.754 2.824 2.754"/></svg>
